X: 31602
T: Pamela Campbell's 20th Birthday
R: jig
M: 6/8
K: Amajor
E|AcB A2 E|FAF E2 c|def ecA|Bdc BAF|
AcB A2 E|FAF E2 c|def eaf|ecA A2:|
d|c3 cde|d3 d2f|e2 f ecA|cBB BAB|
c2 c cde|d2 d def|efe eaf|ecA A2:|

